modules/feathericon/icons/gamepad.svg

<?xml version="1.0" encoding="UTF-8"?>
<svg width="24px" height="24px" viewBox="0 0 24 24" version="1.1" xmlns="http://www.w3.org/2000/svg" xmlns:xlink="http://www.w3.org/1999/xlink">
    <!-- Generator: sketchtool 52.2 (67145) - http://www.bohemiancoding.com/sketch -->
    <title>gamepad</title>
    <desc>Created with sketchtool.</desc>
    <g id="devices" stroke="none" stroke-width="1" fill="none" fill-rule="evenodd">
        <g id="gamepad" fill="#000000">
            <path d="M12.9996338,15 L11.0003662,15 C10.0881599,16.2144467 8.63581783,17 7,17 C4.23857625,17 2,14.7614237 2,12 C2,9.23857625 4.23857625,7 7,7 L17,7 C19.7614237,7 22,9.23857625 22,12 C22,14.7614237 19.7614237,17 17,17 C15.3641822,17 13.9118401,16.2144467 12.9996338,15 Z M8,11 L8,10 C8,9.44771525 7.55228475,9 7,9 C6.44771525,9 6,9.44771525 6,10 L6,11 L5,11 C4.44771525,11 4,11.4477153 4,12 C4,12.5522847 4.44771525,13 5,13 L6,13 L6,14 C6,14.5522847 6.44771525,15 7,15 C7.55228475,15 8,14.5522847 8,14 L8,13 L9,13 C9.55228475,13 10,12.5522847 10,12 C10,11.4477153 9.55228475,11 9,11 L8,11 Z M17,11 C17.5522847,11 18,10.5522847 18,10 C18,9.44771525 17.5522847,9 17,9 C16.4477153,9 16,9.44771525 16,10 C16,10.5522847 16.4477153,11 17,11 Z M16,14 C16.5522847,14 17,13.5522847 17,13 C17,12.4477153 16.5522847,12 16,12 C15.4477153,12 15,12.4477153 15,13 C15,13.5522847 15.4477153,14 16,14 Z M19,13 C19.5522847,13 20,12.5522847 20,12 C20,11.4477153 19.5522847,11 19,11 C18.4477153,11 18,11.4477153 18,12 C18,12.5522847 18.4477153,13 19,13 Z" id="Shape"></path>
        </g>
    </g>
</svg>

<svg width="24" height="24" viewBox="0 0 24 24" xmlns="http://www.w3.org/2000/svg"><path d="M13 15h-2a5 5 0 1 1-4-8h10a5 5 0 1 1-4 8zm-5-4v-1a1 1 0 1 0-2 0v1H5a1 1 0 0 0 0 2h1v1a1 1 0 0 0 2 0v-1h1a1 1 0 0 0 0-2H8zm9 0a1 1 0 1 0 0-2 1 1 0 0 0 0 2zm-1 3a1 1 0 1 0 0-2 1 1 0 0 0 0 2zm3-1a1 1 0 1 0 0-2 1 1 0 0 0 0 2z" fill="#000" fill-rule="evenodd"/></svg>
